public/assets/Discord-Logo-White.svg

<svg id="Layer_1" xmlns="http://www.w3.org/2000/svg" viewBox="0 0 245 240"><style>.st0{fill:#FFFFFF;}</style><path class="st0" d="M104.4 103.9c-5.7 0-10.2 5-10.2 11.1s4.6 11.1 10.2 11.1c5.7 0 10.2-5 10.2-11.1.1-6.1-4.5-11.1-10.2-11.1zM140.9 103.9c-5.7 0-10.2 5-10.2 11.1s4.6 11.1 10.2 11.1c5.7 0 10.2-5 10.2-11.1s-4.5-11.1-10.2-11.1z"/><path class="st0" d="M189.5 20h-134C44.2 20 35 29.2 35 40.6v135.2c0 11.4 9.2 20.6 20.5 20.6h113.4l-5.3-18.5 12.8 11.9 12.1 11.2 21.5 19V40.6c0-11.4-9.2-20.6-20.5-20.6zm-38.6 130.6s-3.6-4.3-6.6-8.1c13.1-3.7 18.1-11.9 18.1-11.9-4.1 2.7-8 4.6-11.5 5.9-5 2.1-9.8 3.5-14.5 4.3-9.6 1.8-18.4 1.3-25.9-.1-5.7-1.1-10.6-2.7-14.7-4.3-2.3-.9-4.8-2-7.3-3.4-.3-.2-.6-.3-.9-.5-.2-.1-.3-.2-.4-.3-1.8-1-2.8-1.7-2.8-1.7s4.8 8 17.5 11.8c-3 3.8-6.7 8.3-6.7 8.3-22.1-.7-30.5-15.2-30.5-15.2 0-32.2 14.4-58.3 14.4-58.3 14.4-10.8 28.1-10.5 28.1-10.5l1 1.2c-18 5.2-26.3 13.1-26.3 13.1s2.2-1.2 5.9-2.9c10.7-4.7 19.2-6 22.7-6.3.6-.1 1.1-.2 1.7-.2 6.1-.8 13-1 20.2-.2 9.5 1.1 19.7 3.9 30.1 9.6 0 0-7.9-7.5-24.9-12.7l1.4-1.6s13.7-.3 28.1 10.5c0 0 14.4 26.1 14.4 58.3 0 0-8.5 14.5-30.6 15.2z"/></svg>

<svg xmlns="http://www.w3.org/2000/svg" xmlns:xlink="http://www.w3.org/1999/xlink" width="193" height="218" viewBox="0 0 193 218">
  <defs>
    <filter id="Path_8348" x="0" y="0" width="193" height="218" filterUnits="userSpaceOnUse">
      <feOffset input="SourceAlpha"/>
      <feGaussianBlur stdDeviation="3" result="blur"/>
      <feFlood/>
      <feComposite operator="in" in2="blur"/>
      <feComposite in="SourceGraphic"/>
    </filter>
  </defs>
  <g id="Discord-Logo-White" transform="translate(-26 -11)">
    <path id="Path_8347" data-name="Path 8347" d="M104.4,103.9c-5.7,0-10.2,5-10.2,11.1s4.6,11.1,10.2,11.1c5.7,0,10.2-5,10.2-11.1C114.7,108.9,110.1,103.9,104.4,103.9Zm36.5,0c-5.7,0-10.2,5-10.2,11.1s4.6,11.1,10.2,11.1c5.7,0,10.2-5,10.2-11.1S146.6,103.9,140.9,103.9Z" fill="#0074f0"/>
    <g transform="matrix(1, 0, 0, 1, 26, 11)" filter="url(#Path_8348)">
      <path id="Path_8348-2" data-name="Path 8348" d="M189.5,20H55.5A20.55,20.55,0,0,0,35,40.6V175.8a20.55,20.55,0,0,0,20.5,20.6H168.9l-5.3-18.5,12.8,11.9L188.5,201,210,220V40.6A20.549,20.549,0,0,0,189.5,20ZM150.9,150.6s-3.6-4.3-6.6-8.1c13.1-3.7,18.1-11.9,18.1-11.9a57.224,57.224,0,0,1-11.5,5.9,65.818,65.818,0,0,1-14.5,4.3,70.052,70.052,0,0,1-25.9-.1,83.944,83.944,0,0,1-14.7-4.3,58.6,58.6,0,0,1-7.3-3.4c-.3-.2-.6-.3-.9-.5a1.38,1.38,0,0,1-.4-.3c-1.8-1-2.8-1.7-2.8-1.7s4.8,8,17.5,11.8c-3,3.8-6.7,8.3-6.7,8.3-22.1-.7-30.5-15.2-30.5-15.2,0-32.2,14.4-58.3,14.4-58.3,14.4-10.8,28.1-10.5,28.1-10.5l1,1.2C90.2,73,81.9,80.9,81.9,80.9s2.2-1.2,5.9-2.9a75.1,75.1,0,0,1,22.7-6.3,9.852,9.852,0,0,1,1.7-.2,84.612,84.612,0,0,1,20.2-.2,81.517,81.517,0,0,1,30.1,9.6s-7.9-7.5-24.9-12.7l1.4-1.6s13.7-.3,28.1,10.5c0,0,14.4,26.1,14.4,58.3C181.5,135.4,173,149.9,150.9,150.6Z" transform="translate(-26 -11)" fill="#0074f0"/>
    </g>
  </g>
</svg>
